img/svg/net/kninja.svg

<?xml version="1.0" encoding="iso-8859-1"?>
<!-- Generator: Adobe Illustrator 21.0.2, SVG Export Plug-In . SVG Version: 6.00 Build 0)  -->
<svg version="1.1" id="&#x56FE;&#x5C42;_1" xmlns="http://www.w3.org/2000/svg" xmlns:xlink="http://www.w3.org/1999/xlink" x="0px"
	 y="0px" viewBox="0 0 16 16" style="enable-background:new 0 0 16 16;" xml:space="preserve">
<g>
	<path d="M12.928,11.343c-0.73-1.114-1.736-1.899-2.903-2.291c1.421-0.687,2.4-2.137,2.4-3.814C12.425,2.897,10.519,1,8.168,1
		C5.817,1,3.911,2.897,3.911,5.238c0,1.695,1,3.157,2.444,3.835c-0.2,0.076-0.405,0.168-0.626,0.279
		C5.413,9.51,5.114,9.698,4.835,9.911L2.389,7.779C2.192,7.608,1.897,7.632,1.729,7.833S1.584,8.337,1.781,8.508l2.347,2.045
		c-0.635,0.681-1.101,1.513-1.33,2.41c-0.112,0.439-0.111,0.447,0.052,0.576c0.301,0.238,1.623,0.858,2.251,1.057
		c0.34,0.107,0.868,0.241,1.174,0.297c0.761,0.14,2.477,0.142,3.256,0.004c1.247-0.22,2.521-0.736,3.608-1.46
		c0.335-0.223,0.479-0.365,0.477-0.471C13.612,12.713,13.221,11.791,12.928,11.343z M6.121,6.898c-0.64,0-1.156-0.531-1.156-1.191
		V4.909c0-0.66,0.515-1.191,1.156-1.191h3.933c0.64,0,1.156,0.531,1.156,1.191v0.798c0,0.66-0.515,1.191-1.156,1.191H6.121z"/>
	<ellipse cx="6.822" cy="5.352" rx="0.478" ry="0.606"/>
	<ellipse cx="9.173" cy="5.352" rx="0.478" ry="0.606"/>
</g>
</svg>

<svg xmlns="http://www.w3.org/2000/svg" viewBox="0 0 16 16"><title>kninja</title><path d="M12.93,11.34A5.6,5.6,0,0,0,10,9.05,4.24,4.24,0,1,0,3.91,5.24h0A4.24,4.24,0,0,0,6.36,9.07a6.78,6.78,0,0,0-.63.28,5.58,5.58,0,0,0-.89.56L2.39,7.78a.46.46,0,0,0-.66.05.49.49,0,0,0,.05.68l2.35,2A5.58,5.58,0,0,0,2.8,13c-.11.44-.11.45.05.58A11.74,11.74,0,0,0,5.1,14.6a11.84,11.84,0,0,0,1.17.3h0a12.8,12.8,0,0,0,3.26,0,9.68,9.68,0,0,0,3.61-1.46c.33-.22.48-.37.48-.47A5.4,5.4,0,0,0,12.93,11.34ZM5,5.71v-.8A1.17,1.17,0,0,1,6.12,3.72h3.93a1.17,1.17,0,0,1,1.16,1.19v.8A1.17,1.17,0,0,1,10.05,6.9H6.12A1.17,1.17,0,0,1,5,5.71Z"/><ellipse cx="6.82" cy="5.35" rx="0.48" ry="0.61"/><ellipse cx="9.17" cy="5.35" rx="0.48" ry="0.61"/></svg>
